X: 14604
T: Gan Ainm
R: jig
M: 6/8
K: Dmajor
|:B|AFD DFA|BGB Bcd|AFD DFA|fed BdB|
AFD DFA|BGB Bcd|BAF EDE|FDDD2:|
|:e|fAf fed|efe ede|gBg gfe|fdd dBA|
fAf fed|efe ede|gBg gfe|fdd d2:|

